X:1
T:Raphael (Oratory), CM
T:Raphael (Oratory), CM
T:From “Oratory Hymns”
T:Public Domain Courtesy of the Cyber Hymnal™
C:From “Oratory Hymns”
Z:Public Domain
Z:Courtesy of the Cyber Hymnal™
%%score ( 1 2 ) ( 3 4 )
L:1/8
Q:1/4=130
M:3/4
K:Bb
V:1 treble 
V:2 treble 
V:3 bass 
V:4 bass 
V:1
 F2 | [Fd]4 [Fd]2 | [Ee]4 [EA]2 | [Ec]4 [DB]2 | (B2 A2) [EG]2 | ([DF]2 [^C=E]2) [DF]2 | %6
 [EG]4 [EF]2 | ([DF]6 | D4) F2 | [Fd]4 [Fd]2 | [Ee]4 [EA]2 | [Ec]4 [DB]2 | (B2 A2) [EG]2 | %13
 (F2 B2) [Fd]2 | [Ed]4 [Ec]2 | [DB]4 |] %16
V:2
 F2 | x6 | x6 | x6 | E4 x2 | x6 | x6 | x6 | D4 F2 | x6 | x6 | x6 | E4 x2 | D4 x2 | x6 | x4 |] %16
V:3
 F,2 | [B,,B,]4 [B,,B,]2 | [F,A,]4 [F,A,]2 | [B,,B,]4 [B,,B,]2 | (G,2 A,2) [E,B,]2 | %5
 [F,B,]4 [F,B,]2 | [F,A,]4 [F,A,]2 | [B,,B,]6- | [B,,B,]4 F,2 | [B,,B,]4 [B,,B,]2 | %10
 [F,A,]4 [F,A,]2 | [^F,A,]4 G,2 | (G,2 A,2) [E,B,]2 | [F,B,]4 [F,B,]2 | [F,A,]4 [F,A,]2 | %15
 [B,,B,]4 |] %16
V:4
 F,2 | x6 | x6 | x6 | E,4 x2 | x6 | x6 | x6 | x4 F,2 | x6 | x6 | x4 G,2 | E,4 x2 | x6 | x6 | x4 |] %16

